X:1
T:AILNRON1- Ellen a Roon
S:from 'The Beggar's Wedding, 1729
Q:1/4=120
L:1/4
M:3/4
K:A
EFG|A3/2 B/c|EFG|A3||Add|dAF|FAB/=c/|B3/2 A/B|Add|\
eAF|d/A/B/A/d/A/|B3/2 c/A|{c/d/}e3/2 d/c/B/|A2B|EFG|A3|]

